X:169
T:Critic. THO5.169
C:"1781"
M:6/8
L:1/8
B:Thompson's Complete Collection of 200 Favourite Dances Vol.5
F:https://www.libraryofdance.org/manuals/1780c-Thompson-Compleat-5.pdf
Z:vmp. Peter Dunk 2024
Q:3/8=100
K:A
E|c2c cde|eBB Bed|cBA GFG|A2A A2:|
|:E|c2 c cde|eBB BAB|c2c cde|eBB B2E|
A2A ABc|B2B Bed|cBA GFG|A2A A2:|
W:
W:First & 2nd Couple change sides ./.
W:the same back again ./:
W:lead down the middle, up again &cast off :/.
W:hands 6 round :/:

